X: 2
T:Lieutenant McGuire's Jig
M:6/8
L:1/8
R:Jig
K:Bm
f|"Bm"BBB d2e|fBB fBB|"A"AAA c2d|eAA eAA|"Bm"BBB d2e|fBB fBB|!
"Bm"fgf "A"edc|"Bm"dBB B2:||:c|"D"d2e fdd|add fdd|dde fdd|"A"eAA ABc|!
"D"d2e fdd|add fdd|"A"eee f2e|"Bm"dBB B2:||:f|"Bm"BBB d2e|"D"f2e fga|!
"A"AAA c2d|cee ecA|"Bm"BBB d2e|"D"f2e fga|"A"ede f2e|"Bm"dBB B2:|
|:f|"Bm"BBB BfB|!BaB fBB|"A"AAA AeA|AaA eAA|"Bm"BBB BfB|BaB fBB|
"D"fgf "A"edc|"Bm"dBB B2:||
